packages/tokens/icons/selfService/size16Px.svg

<svg viewBox="0 0 16 16" fill="none" xmlns="http://www.w3.org/2000/svg" width="1em" height="1em"><rect x="5.5" y="1.5" width="9" height="6" rx="1.5" stroke="currentColor"/><path d="M10 5C10.5523 5 11 4.55228 11 4C11 3.44772 10.5523 3 10 3C9.44772 3 9 3.44772 9 4C9 4.55228 9.44772 5 10 5Z" fill="currentColor"/><path d="M8.5 7V7C8.5 6.44772 8.94772 6 9.5 6H10.5C11.0523 6 11.5 6.44772 11.5 7V7" stroke="currentColor" stroke-linecap="round"/><path d="M4 3.5H3.5C2.39543 3.5 1.5 4.39543 1.5 5.5L1.5 9.5C1.5 10.6046 2.39543 11.5 3.5 11.5L12.5 11.5C13.6046 11.5 14.5 10.6046 14.5 9.5L14.5 9" stroke="currentColor" stroke-linecap="round" stroke-linejoin="round"/><path d="M5.5 14.5H10.5" stroke="currentColor" stroke-linecap="round"/><line x1="8" y1="12" x2="8" y2="14" stroke="currentColor"/></svg>

<svg xmlns="http://www.w3.org/2000/svg" fill="none" viewBox="0 0 16 16" width="1em" height="1em"><rect width="9" height="6" x="5.5" y="1.5" stroke="currentColor" rx="1.5"/><path fill="currentColor" d="M10 5a1 1 0 1 0 0-2 1 1 0 0 0 0 2Z"/><path stroke="currentColor" stroke-linecap="round" d="M8.5 7v0a1 1 0 0 1 1-1h1a1 1 0 0 1 1 1v0"/><path stroke="currentColor" stroke-linecap="round" stroke-linejoin="round" d="M4 3.5h-.5a2 2 0 0 0-2 2v4a2 2 0 0 0 2 2h9a2 2 0 0 0 2-2V9"/><path stroke="currentColor" stroke-linecap="round" d="M5.5 14.5h5"/><path stroke="currentColor" d="M8 12v2"/></svg>
